X:1
T:Title
%%score { ( 1 4 ) | ( 2 3 ) }
L:1/8
M:4/4
K:Eb
V:1 treble nm="Grand Piano"
V:4 treble 
V:2 bass 
V:3 bass 
V:1
 z4 z2[Q:1/4=100] [GB]A | G2 G2 [FA]2 [DF]2 | E2 G4 GA | [EGB]2 [EGB]2 [DF]2 [B,FA]2 | %4
 [B,EG]6 [EG][FA] | [GB]2 [GB]B [EAc]2 [CEA]2 | [A,CE] [CEA]3- [CEA]2 [Ac][Ac] | %7
 [GB]2 [GB]2 G2 E2 | [DF]6 [EG][GB] | [Ge]2 [Ge][Ge] [Ge]2 c2 | A c3- c z GB | %11
 [Ge]2 [Ge][Ge] [Ge]2 [EG]2 | [DA]6 [EG][EA] | [GB]2 [GB]B [EGB]2 [EGe]2 | %14
 [EAe] [EAc]3- [EAc] z [CFA][CFA] | [EG]2 [EG][DF] [DA]2 [DF]2 |[M:3/4] E6 |[M:1/4] G[FA] | %18
[M:4/4] [GB]2 [GB]2 [FA]3 [DF] | [FA]2 G2 G2 GA | [EGB]2 [EGB]2 [EGB]2 [B,EG][EGB] | %21
 [DFA]2 [B,EG]2 [B,DF]2 [B,EG][B,EA] | [GB]6 z2 | [Ae]6 z2 | [EGB]2 B2 [EGB]2 G2 | A2 A2 AcBA | %26
 G>G GF [DA]<[DA] [DF]2 |[M:3/4] E6 |] %28
V:2
 z4 z2 z F | [E,B,E]2 [E,B,E]2 [B,,B,]2 [B,,B,]2 | [E,B,]2 [E,B,E]4 EF | E,2 E,2 B,2 B,,2 | %4
 E,6 [E,B,]2 | z2 [E,E]2 z4 | A,, A,,3- A,,2 [E,E]2 | [E,E]2 [E,E]2 [E,B,E]2 [E,G,]2 | %8
 [B,,B,]6 [E,B,]2 | [E,B,]2 [E,B,]2 [E,E]2[K:treble] [A,EA]2 | [A,E] [A,EA]3- [A,EA] z EG | %11
 [E,B,]2 [E,B,]2 [E,B,]2 [E,B,]2 | [B,,B,]6 [E,B,]2 | [E,E]2 z G E,2 E,2 | A, A,3- A, z A,,A,, | %15
 [B,,B,]2 [B,,B,][B,,A,] [B,,F,]2 [B,,A,]2 |[M:3/4] [B,,B,]6 |[M:1/4] [E,B,E][E,B,] | %18
[M:4/4] [E,E]2 [E,B,]2 [B,,B,]3 [B,,B,] | [E,B,]2 [E,B,E]2 [E,B,E]2 EF | E,2 E,2 E,2 E,E, | %21
 B,,2 B,,2 B,,2 E,E, | E,2 E,2 G,2 E,2 | [A,C]2 A,2 A,2 A,2 | E,2[K:treble] G2 E,2 E2 | %25
 E2 E2 E[A,EA][G,EG][K:bass][F,B,F] | [E,B,E]>[E,B,E] [E,B,E][E,A,D] [B,,F,]<[B,,F,] [B,,A,]2 | %27
[M:3/4] [E,G,]6 |] %28
V:3
 z4 z2 [E,B,]2 | x8 | z4 z2 [E,B,]2 | x8 | x8 | [E,E]2 z G A,,2 A,,2 | x8 | x8 | x8 | %9
 x6[K:treble] x2 | z4 z2 E,2 | x8 | x8 | z2 [E,E]2 z4 | x8 | x8 |[M:3/4] x6 |[M:1/4] x2 | %18
[M:4/4] x8 | z4 z2 [E,B,]2 | x8 | x8 | x8 | x8 | x2[K:treble] x6 | [A,C]6 z2[K:bass] | x8 | %27
[M:3/4] x6 |] %28
V:4
 x8 | x8 | x8 | x8 | x8 | x8 | x8 | x8 | x8 | x8 | x8 | x8 | x8 | x8 | x8 | x8 |[M:3/4] x6 | %17
[M:1/4] x2 |[M:4/4] x8 | x8 | x8 | x8 | E2 E2 E2 [EGe]2 | z2 C2 C2 [Ec]2 | x8 | x8 | x8 | %27
[M:3/4] x6 |] %28

